stars.svg

<svg width="117" height="16" viewBox="0 0 117 16" fill="none" xmlns="http://www.w3.org/2000/svg">
<path d="M16.5386 6.0972C16.5036 5.98994 16.4109 5.91172 16.2992 5.89542L10.9392 5.11646L8.54216 0.259572C8.49238 0.158238 8.38927 0.0942383 8.27668 0.0942383C8.16408 0.0942383 8.06068 0.158238 8.01119 0.259572L5.61386 5.11676L0.253861 5.89572C0.142157 5.91202 0.049713 5.98994 0.0144538 6.0975C-0.0202129 6.20446 0.00852784 6.32239 0.0894167 6.40091L3.96823 10.1816L3.05238 15.5203C3.03342 15.6314 3.07905 15.7437 3.17001 15.8101C3.26156 15.8771 3.38275 15.8856 3.48201 15.8326L8.27668 13.3123L13.0708 15.8326C13.114 15.8554 13.1617 15.8667 13.2088 15.8667C13.2702 15.8667 13.3312 15.8477 13.383 15.8101C13.4743 15.7437 13.5199 15.6314 13.5007 15.5203L12.5851 10.1819L16.4639 6.40091C16.5445 6.32179 16.5736 6.20416 16.5386 6.0972Z" fill="#EF9546"/>
<path d="M41.5385 6.0972C41.5036 5.98994 41.4108 5.91172 41.2991 5.89542L35.9391 5.11646L33.5421 0.259572C33.4923 0.158238 33.3892 0.0942383 33.2766 0.0942383C33.164 0.0942383 33.0606 0.158238 33.0111 0.259572L30.6138 5.11676L25.2538 5.89572C25.1421 5.91202 25.0497 5.98994 25.0144 6.0975C24.9797 6.20446 25.0085 6.32239 25.0894 6.40091L28.9682 10.1816L28.0523 15.5203C28.0334 15.6314 28.079 15.7437 28.1699 15.8101C28.2615 15.8771 28.3827 15.8856 28.4819 15.8326L33.2766 13.3123L38.0707 15.8326C38.1139 15.8554 38.1617 15.8667 38.2088 15.8667C38.2701 15.8667 38.3311 15.8477 38.383 15.8101C38.4742 15.7437 38.5199 15.6314 38.5006 15.5203L37.5851 10.1819L41.4639 6.40091C41.5445 6.32179 41.5735 6.20416 41.5385 6.0972Z" fill="#EF9546"/>
<path d="M66.5385 6.0972C66.5036 5.98994 66.4108 5.91172 66.2991 5.89542L60.9391 5.11646L58.5421 0.259572C58.4923 0.158238 58.3892 0.0942383 58.2766 0.0942383C58.164 0.0942383 58.0606 0.158238 58.0111 0.259572L55.6138 5.11676L50.2538 5.89572C50.1421 5.91202 50.0497 5.98994 50.0144 6.0975C49.9797 6.20446 50.0085 6.32239 50.0894 6.40091L53.9682 10.1816L53.0523 15.5203C53.0334 15.6314 53.079 15.7437 53.1699 15.8101C53.2615 15.8771 53.3827 15.8856 53.4819 15.8326L58.2766 13.3123L63.0707 15.8326C63.1139 15.8554 63.1617 15.8667 63.2088 15.8667C63.2701 15.8667 63.3311 15.8477 63.383 15.8101C63.4742 15.7437 63.5199 15.6314 63.5006 15.5203L62.5851 10.1819L66.4639 6.40091C66.5445 6.32179 66.5735 6.20416 66.5385 6.0972Z" fill="#EF9546"/>
<path d="M91.5385 6.0972C91.5035 5.98994 91.4108 5.91172 91.2991 5.89542L85.9391 5.11646L83.542 0.259572C83.4923 0.158238 83.3891 0.0942383 83.2766 0.0942383C83.164 0.0942383 83.0606 0.158238 83.0111 0.259572L80.6137 5.11676L75.2537 5.89572C75.142 5.91202 75.0496 5.98994 75.0143 6.0975C74.9797 6.20446 75.0084 6.32239 75.0893 6.40091L78.9681 10.1816L78.0523 15.5203C78.0333 15.6314 78.0789 15.7437 78.1699 15.8101C78.2614 15.8771 78.3826 15.8856 78.4819 15.8326L83.2766 13.3123L88.0706 15.8326C88.1139 15.8554 88.1616 15.8667 88.2087 15.8667C88.27 15.8667 88.3311 15.8477 88.3829 15.8101C88.4742 15.7437 88.5198 15.6314 88.5006 15.5203L87.585 10.1819L91.4638 6.40091C91.5444 6.32179 91.5734 6.20416 91.5385 6.0972Z" fill="#EF9546"/>
<path d="M116.539 6.0972C116.504 5.98994 116.411 5.91172 116.299 5.89542L110.939 5.11646L108.542 0.259572C108.492 0.158238 108.389 0.0942383 108.277 0.0942383C108.164 0.0942383 108.061 0.158238 108.011 0.259572L105.614 5.11676L100.254 5.89572C100.142 5.91202 100.05 5.98994 100.014 6.0975C99.9797 6.20446 100.008 6.32239 100.089 6.40091L103.968 10.1816L103.052 15.5203C103.033 15.6314 103.079 15.7437 103.17 15.8101C103.262 15.8771 103.383 15.8856 103.482 15.8326L108.277 13.3123L113.071 15.8326C113.114 15.8554 113.162 15.8667 113.209 15.8667C113.27 15.8667 113.331 15.8477 113.383 15.8101C113.474 15.7437 113.52 15.6314 113.501 15.5203L112.585 10.1819L116.464 6.40091C116.544 6.32179 116.574 6.20416 116.539 6.0972Z" fill="#EF9546"/>
</svg>

<svg width="117" height="16" fill="none" xmlns="http://www.w3.org/2000/svg"><path d="M16.539 6.097a.297.297 0 0 0-.24-.202l-5.36-.779L8.542.26a.296.296 0 0 0-.53 0L5.613 5.117l-5.36.779a.297.297 0 0 0-.165.505l3.88 3.78-.917 5.34a.297.297 0 0 0 .43.312l4.795-2.52 4.794 2.52a.296.296 0 0 0 .43-.313l-.916-5.338L16.464 6.4c.08-.08.11-.197.075-.304ZM41.538 6.097a.297.297 0 0 0-.239-.202l-5.36-.779L33.542.26a.296.296 0 0 0-.53 0l-2.398 4.857-5.36.779a.297.297 0 0 0-.165.505l3.88 3.78-.917 5.34a.297.297 0 0 0 .43.312l4.795-2.52 4.794 2.52a.297.297 0 0 0 .43-.313l-.916-5.338L41.464 6.4c.08-.08.11-.197.075-.304ZM66.538 6.097a.297.297 0 0 0-.239-.202l-5.36-.779L58.542.26a.296.296 0 0 0-.53 0l-2.398 4.857-5.36.779a.297.297 0 0 0-.165.505l3.88 3.78-.917 5.34a.297.297 0 0 0 .43.312l4.795-2.52 4.794 2.52a.297.297 0 0 0 .43-.313l-.916-5.338L66.464 6.4c.08-.08.11-.197.075-.304ZM91.538 6.097a.297.297 0 0 0-.239-.202l-5.36-.779L83.542.26a.296.296 0 0 0-.53 0l-2.398 4.857-5.36.779a.297.297 0 0 0-.165.505l3.88 3.78-.917 5.34a.297.297 0 0 0 .43.312l4.795-2.52 4.794 2.52a.297.297 0 0 0 .43-.313l-.916-5.338L91.464 6.4c.08-.08.11-.197.075-.304ZM116.539 6.097a.297.297 0 0 0-.24-.202l-5.36-.779L108.542.26a.296.296 0 0 0-.531 0l-2.397 4.857-5.36.779a.296.296 0 0 0-.165.505l3.879 3.78-.916 5.34a.297.297 0 0 0 .43.312l4.795-2.52 4.794 2.52a.296.296 0 0 0 .43-.313l-.916-5.338 3.879-3.781c.08-.08.11-.197.075-.304Z" fill="#EF9546"/></svg>
